X:1
T:Der Siebmschritt (I. Melodie)
C:traditionell
R:volkstanz
A:Ybbsitz in Niederoesterreich
%%textfont Helvetica-Narrow 10pt
%%begintext align
B:Altoesterreichische Volkstaenze , Raimund Zoder, Oesterreichisches Volksbildungsamt, Oesterreichischer Schulbuecherverlag, Wien, 1922
S:
N:im buch zweistimmig plus gitarren-griffe
N:quelle einstimmig
N:im buch s. 5 nr. 6
N:im buch ganz in E erster ton h', ambitus h' h''
%%endtext
F:http://simonwascher.info/
Z:abc transcription Simon Wascher
M:2/4
L:1/8
K:G %Transposed from E
(DG) GG | F/G/A/G/ F2 | (DA) AA | G/A/B/A/ G2 |\
(Ec) c2 | (DB) B2 | (CA) AF | G/A/B/c/ d2 |\
(Ec) c2 | (DB) B2 | (CA) AF | .G.G.G z :|
%%wordsfont Times-Italic 11pt
W:aus Simon Waschers TradArchiv
